!!!!SEGMENT: pl-wtm--iii-40-856-2--002_wysocki-kasper-napoleon--quatre-krakowiaks-op-1-krakowiak-no-2.krn
!!!cenid: 18xx:4382
!!!COM: Wysocki, Kasper Napoleon
!!!COM-rismID: pe41024789
!!!CDT: 1810/12/06-1850/09/21
!!!CNT: Polish
!!!GTL: Quatre Krakowiaks op. 1
!!!OTL: Krakowiak. No. 2.
!!!OMV: 002
!!!PDT:
!!!AGN:
!!!SMS-siglum: PL-Wtm
!!!SMS-shelfmark: III.40.856/2
!!!SMS-shelfwork: 001-002 G
!!!SMS-variant:
!!!SMS-altvar:
!!!NIFC-rismSourceID: 1001153067
!!!NIFC-rismChildID: 1001153067
!!!NIFC-islandoraID: pl-wtm:13659
!!!URL-pdf-islandora: https://repozytorium.nifc.pl/islandora/object/pl-wtm:13659/datastream/PDF/view
!!!URL-scan: https://polish.musicsources.pl/pl/lokalizacje/galeria/druki-muzyczne/16673/4 @EN{Scan on Polish Music Sources Website} @PL{Skany w portalu Dziedzictwo Muzyki Polskiej w otwartym dostępie}
!!!ONB-nifc: UWAGA: skan 4.
!!!OMD: Allegro non tanto.
!!!AIN: 1 piano
!!!key:
**kern	**kern	**dynam
*part1	*part1	*part1
*staff2	*staff1	*
*	*I"Piano	*
*	*I'pf	*
*	*Ipiano	*
*	*ICklav	*
*	*IGsolo	*
*clefF4	*clefG2	*
*k[f#c#g#d#]	*k[f#c#g#d#]	*
*E:	*E:	*
*M2/4	*M2/4	*
*MM92	*MM92	*
!	!LO:TX:b:t=Soave.	!
8r	(8e/	p
=1	=1	=1
*^	*	*
*	*ped	*	*
8r	4.EE\	8.g#/L	.
8BB/ 8G#	.	.	.
.	.	16b/K	.
4BB/ 4G#	.	8.ee/	.
.	8EE\	.	.
*	*Xped	*	*
.	.	16e/Jk	.
*v	*v	*	*
=2	=2	=2
*	*ped	*
8BBB/	8f#'/)	.
(8BB\L	4B^^/	.
8D#\ 8F# 8A	.	.
*	*Xped	*
8BB\J)	(8a/	.
=3	=3	=3
*^	*	*
*	*	*ped	*
8r	4.EE\	8.g#/L	.
8BB/ 8G#	.	.	.
.	.	16b/K	.
4BB/ 4G#	.	8.ee/	.
.	8EE\	.	.
*	*	*Xped	*
.	.	16e/Jk	.
*v	*v	*	*
=4	=4	=4
*	*ped	*
8BBB'/	8f#'/)	.
(8BB\L	4B^^/	.
8D#\ 8F# 8A	.	.
*	*Xped	*
8BB\J)	(8a/	.
=5	=5	=5
*^	*	*
*	*	*ped	*
8r	4.EE\	8.g#\L	.
8BB/ 8G#	.	.	.
.	.	16b\K	.
.	.	8qb/	.
4BB/ 4G#	.	8.ee\	.
.	8EE#\	.	.
*	*	*Xped	*
.	.	16dd#\Jk	.
*v	*v	*	*
=6	=6	=6
*	*ped	*
8FF#'/	8cc#'\)	<
.	(>8qcc#/	.
(8F#\L	4gg#^^\	.
8A#X\ 8c# 8e	.	.
*	*Xped	*
8F#\J)	8ff#\)	[[
=7	=7	=7
8B\L 8d#	(8.dd#/L	>
8F#\	.	.
.	16b/K	.
8A#X\ 8c# 8e	8.cc#/	.
8F#\J	.	.
.	16f#/Jk	]]
=8	=8	=8
4B\ 4d#	8cc#'\)	.
.	4b^^\	.
4r	.	.
.	8a/	.
!!LO:LB:g=original
=9	=9	=9
*^	*	*
*	*	*ped	*
8r	4.EE\	(8.g#/L	.
8BB/ 8G#	.	.	.
.	.	16b/Jk	.
4BB/ 4G#	.	8ff#\L	.
.	8EE\	16ee\L	.
*	*	*Xped	*
.	.	16g#\JJ	.
*v	*v	*	*
=10	=10	=10
*	*ped	*
8BBB'/	8f#/)	.
(8BB\L	4B^^/	.
8D#\ 8F# 8A	.	.
*	*Xped	*
8BB\J)	8a/	.
=11	=11	=11
*^	*	*
*	*	*ped	*
8r	4.EE\	(8.g#/L	.
8BB/ 8G#	.	.	.
.	.	16b/Jk	.
4BB/ 4G#	.	16ff#\LL	.
.	.	16ee\	.
.	8EE\	16e\	.
*	*	*Xped	*
.	.	16g#\JJ	.
*v	*v	*	*
=12	=12	=12
*	*ped	*
8BBB'/	8f#/)	.
(8BB\L	4B^^/	.
8D#\ 8F# 8A	.	.
*	*Xped	*
8BB\J)	(8a/	.
=13	=13	=13
*^	*	*
*	*	*ped	*
8r	4.EE\	8.g#\L	.
8BB/ 8G#	.	.	.
.	.	16b\K	.
4BB/ 4G#	.	8.ee\	.
.	8EE#\	.	.
*	*	*Xped	*
.	.	16dd#\Jk	.
*v	*v	*	*
=14	=14	=14
*	*ped	*
8FF#'/	8cc#'\)	<
.	8qcc#/	.
(8F#\L	4gg#^^\	.
8A#X\ 8c# 8e	.	.
*	*Xped	*
8F#\J)	8ff#\	[[
=15	=15	=15
.	8qff#/	>
8B\L 8d#	(8bb\L	.
8F#\	16aa#X\L	.
.	16gg#\JJ	.
8A#X\ 8c# 8e	8ff#\L	.
8F#\J	16ee\L	.
.	16cc#\JJ	]]
=16	=16	=16
8B\ 8d#	8b'\)	.
!	!LO:TX:a:t=senza rigore.	!
4BB/ 4F#	4d#/ 4b	.
(8BB\L 8F#	(8d#/L 8b	.
=17	=17	=17
*^	*^	*
8Cn\J) 8Gn	8ryy	8e'/J) 8a#X	8ryy	.
(8G/L	4.C\	(8e/L	4.A#X\	.
8F#/	.	8d#/	.	.
8G/J	.	8e/J	.	.
*	*	*v	*v	*
!!LO:LB:g=original
=18	=18	=18	=18
8D#/)	8BB\	8B'/) 8f#	.
4BB\ 4F#	4ryy	4d#/ 4b	.
(8BB\L 8F#	8ryy	(8d#/L 8b	.
=19	=19	=19	=19
*	*	*^	*
8Cn'\J) 8Gn	8ryy	8e'/J) 8a#X	8ryy	.
(8G/L	4.C\	(8e/L	4.A#X\	.
8F#/	.	8d#/	.	.
8G/J	.	8e/J	.	.
*	*	*v	*v	*
=20	=20	=20	=20
8F#/)	8D#\	8B/) 8f#	.
4BB\ 4F#	4ryy	4d#/ 4b	.
(8BB\L 8F#	8ryy	(8d#/L 8b	.
=21	=21	=21	=21
*	*	*^	*
8Cn\J) 8Gn	8ryy	8e'/J) 8a#X	8ryy	.
!	!	!LO:TX:a:t=subito.	!	!
(8G/L	4.C\	(8ee/L	4.a#\	.
8F#/	.	8dd#/	.	.
8G/J	.	8ee/J	.	.
=22	=22	=22	=22	=22
8F#'/)	8BB\	8dd#/)	8b\	.
4BB/ 4F#	4ryy	4d#/ 4b	4ryy	.
(<8BB/ 8F#	8ryy	(8d#/L 8b	8ryy	.
*v	*v	*	*	*
*	*v	*v	*
=23	=23	=23
8FF#/) 8F#	8e/J) 8a#X	.
.	8qa#/	f >
8F#\L 8A#X 8e	(>8gg#\L	.
!	!LO:TX:a:t=ritenuto.	!
8F#\ 8A# 8e	8.ff#\	.
8F#\J 8c# 8e	.	.
.	16a#\Jk	.
=24	=24	=24
4B\ 4d#	8cc#'\)	.
.	4b^^\	]
4r	.	.
!	!LO:TX:a:t=a tempo	!
.	(8an\	p
=25	=25	=25
*^	*	*
*	*	*ped	*
8r	4.EE\	8.g#/L	.
8BB/ 8G#	.	.	.
.	.	16b/K	.
4BB/ 4G#	.	8.ee/	.
.	8EE\	.	.
*	*	*Xped	*
.	.	16e/Jk	.
*v	*v	*	*
=26	=26	=26
*	*ped	*
8BBB/	8f#'/)	.
8BB\L	4B^^/	.
8D#\ 8F# 8A	.	.
*	*Xped	*
8BB\J	8a/	.
=27	=27	=27
*^	*	*
*	*	*ped	*
8r	4.EE\	(8g#/L	.
8BB/ 8G#	.	8b/J	.
.	.	8qb/	.
4BB/ 4G#	.	16ff#\LL	.
.	.	16ee\	.
.	8EE\	16b\	.
*	*	*Xped	*
.	.	16g#\JJ	.
*v	*v	*	*
!!LO:LB:g=original
=28	=28	=28
*	*ped	*
8BBB/	8f#/)	.
8BB\L	4B^^/	.
8D#\ 8F# 8A	.	.
*	*Xped	*
8BB\J	8a/	.
=29	=29	=29
*^	*	*
8r	4.EE\	(8g#'\L	.
8BB/ 8G#	.	8b\	.
.	.	8qb/	.
4BB/ 4G#	.	8.ee\)	.
.	8GG#\	.	.
.	.	16ee\Jk	.
=30	=30	=30	=30
8r	2AA\	(8ee\	.
8C#/L 8F# 8A	.	4f#/	.
8C#/ 8F# 8A	.	.	.
8C#/J 8F# 8A	.	8cc#\)	.
=31	=31	=31	=31
8r	4.BB\	(8cc#\L	.
8D#/ 8F# 8A	.	8b\	.
4D#/ 4F# 4A	.	8a#X\	.
.	8BB#X\	8an\J)	.
=32	=32	=32	=32
8r	2C#\	(8f##X/L	.
8E/L 8G#	.	8g#/J)	.
8E/ 8G#	.	4r	.
8E/J 8G#	.	.	.
=33	=33	=33	=33
8r	4.EE\	(8g#\L	<
8BB/ 8G#	.	8b\	.
.	.	8qb/	.
4BB/ 4G#	.	8.aa\	.
.	8EE\	.	.
.	.	16gg#\Jk	[[
=34	=34	=34	=34
8r	2AA\	8.ff#\L	>
8C#/L 8F# 8A	.	.	.
.	.	16ee\K	.
8C#/ 8F# 8A	.	8.dd#\	.
8C#/J 8F# 8A	.	.	.
.	.	16cc#\Jk)	.
=35	=35	=35	=35
8BB/L	4BB\	(8.cc#/L	.
8E/J 8G# 8B	.	.	.
.	.	16b/K	.
8BB/L	4BB\	8.a/	.
8D#/J 8A	.	.	.
.	.	16f#/Jk)	]]
=36	=36	=36	=36
8G#/	8E\	8B/ 8e	.
4Gn/	4G^^>\	4r	.
!!LO:LB:g=original
=37||	=37||	=37||	=37||
*k[]	*k[]	*k[]	*
!	!	!LO:TX:a:t=Serioso e parlante.	!
(16C\LL 16G	8ryy	(16c/LL 16e	p
16C'\JJ 16G	.	16c'/JJ 16e	.
*v	*v	*	*
=	=	=
8C\L) 8G	8c'/L) 8e	.
8C\ 8G	8c'/ 8e	.
8.C\ 8.A	8.c'/ 8.f	.
16C\Jk 16A	16c'/Jk 16f	.
=38	=38	=38
8C'\ 8G	8c/ 8e	.
!	!LO:N:vis=4	!
8C\ 8E 8G	8c<'/	.
8r	8r	.
16C'\LL 16G	16c'/LL 16e	.
16C'\JJ 16G	16c'/JJ 16e	.
=39	=39	=39
*^	*^	*
8D/L	8GG\	(8g/L	8B\L	.
(<8D/	4.GG\	8g/	8B\	.
8.E-X/	.	8.f#X/	8.c\	.
16D/Jk)	.	16fn/Jk)	16B\Jk	.
*v	*v	*	*	*
*	*v	*v	*
=40	=40	=40
8C\ 8G	8c/ 8e	.
8C\ 8En	8G<'/ 8c<	.
8r	8r	.
(16C\LL 16G	(16c/LL 16e	.
16C\JJ 16G	16c/JJ 16e	.
=41	=41	=41
8C'\L) 8G	8c'/L) 8e	.
(16C\L 16G	(16c/L 16e	.
16C\JJ 16G	16c/JJ 16e	.
8C'\L) 8A	8c/L) 8f	.
(16C\L 16A	(16c/L 16f	.
16C\JJ 16A	16c/JJ 16f	.
=42	=42	=42
*^	*^	*
8C'\L) 8G	4.ryy	8c/) 8e	4.ryy	.
8C\J 8E 8G	.	8c</	.	.
8r	.	8r	.	.
(>16G/LL	(<8C\	(16e/LL	8A#X\	.
16F#X/JJ)	.	16f#X/JJ)	.	.
=43	=43	=43	=43	=43
(8.E/L	2BB\)	(8.g/L	[2B\	.
16F#X/K	.	16a/K	.	.
8.G/	.	8.b/	.	.
16A/Jk	.	16d#X/Jk	.	.
=44	=44	=44	=44	=44
8G/)	8E\	8e'/)	8B\]	.
4D#X/	(4AA\	(4cc^^/	4.f#X\	.
8ryy	16BB\LL	16b/LL	.	.
.	16C\JJ)	16a/JJ)	.	.
=45	=45	=45	=45	=45
(16E/LL	2BB\	(16g/LL	[4e\	.
16D#X/	.	16f#X/	.	.
16E/	.	16g/	.	.
16F#X/JJ	.	16a/JJ	.	.
8.G/L	.	8.b/L	8.e\L]	.
16A/Jk	.	16d#X/Jk	16B\Jk	.
!!LO:LB:g=original
=46	=46	=46	=46	=46
8G'/)	8E\	8e/)	8B\	.
(4Fn/	4.GG\	(4a^^/	4.B\	.
16E/LL	.	16g/LL	.	.
16D/JJ)	.	16f/JJ)	.	.
=47	=47	=47	=47	=47
(8G/L	4C\	(8e/L	4c\	.
16F#X/L	.	16d#X/L	.	.
16G/JJ	.	16e/JJ	.	.
8A-X/L	4C\	8f/L	4c\	.
16G/L	.	16d#/L	.	.
16A-/JJ)	.	16f/JJ)	.	.
*v	*v	*	*	*
*	*v	*v	*
=48	=48	=48
8C\ 8G	8c'/ 8e	.
8C\ 8E	8G<'/ 8c<	.
8r	8r	.
16C\LL 16G	(>16c/LL 16e	.
16C\JJ 16G	16c/JJ 16e	.
=49	=49	=49
*^	*	*
16GG/LL 16D	4ryy	16B/LL 16g	.
16GG/ 16D	.	16B/ 16g	.
16GG/ 16D	.	16B/ 16g	.
[<16GG/JJ 16D	.	16B/JJ 16g	.
(8.E-X/L	4GG\]	8.c/L 8.f#X	>
16D/Jk	.	16B/Jk 16fn	]]
*v	*v	*	*
=50	=50	=50
8C'\) 8G	8c/) 8e	.
8C\ 8E	8G<'/ 8c<	.
8r	8r	.
16C\LL 16G	(>16c/LL 16e	.
16C\JJ 16G	16c/JJ 16e	.
=51	=51	=51
*^	*	*
(16G/LL	16C\KL	16c/LL 16e	.
16G/	8.C\J	16c/ 16e	.
16F#X/	.	16B/ 16d#X	.
16G/JJ)	.	16c/JJ) 16e	.
!	!	!	!LO:DY:b=2:rj
(16A/LL	16C\KL	(>16c/LL 16f	f
16A/	8.C\J	16c/ 16f	.
16G#X/	.	16B/ 16e	.
16A/JJ)	.	16c/JJ) 16f	.
=52	=52	=52	=52
*	*	*^	*
8C'\ 8G	4ryy	8c/L 8e	4ryy	.
8C'\ 8G	.	8A#X/J 8c 8e	.	.
8r	8r	8r	8ryy	.
(16G/LL	8C\	(16e/LL	8A#X\	.
16F#X/JJ)	.	16f#X/JJ)	.	.
=53	=53	=53	=53	=53
(>16E/LL	2BB\	(16g/LL	2B\	.
16D#X/	.	16f#X/	.	.
16E/	.	16g/	.	.
16F#X/JJ	.	16a/JJ	.	.
8.G/L	.	8.b/L	.	.
16A/Jk	.	16d#X/Jk)	.	.
!!LO:PB:g=original
=54	=54	=54	=54	=54
8G/)	8E\	8e'/	8B\	.
4F#X/	(4AA\	(4cc^^/	4.d#X\	.
8ryy	16BB\LL	16b/LL	.	.
.	16C\JJ)	16a/JJ)	.	.
=55	=55	=55	=55	=55
(16E/LL	2BB\	(16g/LL	[4e\	.
16D#X/	.	16f#X/	.	.
16E/	.	16g/	.	.
16F#X/JJ	.	16a/JJ	.	.
8.G/L	.	8.b/L	8.e\L]	.
16A/Jk)	.	16d#X/Jk	[16B\Jk	.
=56	=56	=56	=56	=56
8G'/	8E\	8e'/)	8B\]	.
*ped	*	*	*	*
8GG/ 8G	4ryy	8dn/ 8fn 8g	8ryy	f
8r	.	8r	4ryy	.
(32GGG/LLL	8ryy	16f/LL 16g	.	.
32GG/	.	.	.	.
32GGG/	.	16f/JJ 16g	.	.
32GG/JJJ	.	.	.	.
=57	=57	=57	=57	=57
8GGG'/)	4ryy	(16g/LL	16f\KL	.
.	.	16g/	8.f\J	.
8r	.	16f#X/	.	.
.	.	16g/JJ)	.	.
(8.B/L	[4G\	(8.dd/L	4fn\	.
*Xped	*	*	*	*
16d/Jk	.	[<16g/Jk	.	.
=58	=58	=58	=58	=58
8c'/)	8G\]	8g'\]) 8ee	8ryy	.
4e/	4.G\	4cc^^/	4g\	.
8d/	.	8b/	8r	.
=59	=59	=59	=59	=59
8.c/L	[2G\	(8.a/L	4f#X\	.
16d/K	.	16b/K	.	.
8.e-X/	.	8.cc/	8.f#\L	.
[16c/Jk	.	16f#/Jk	[16e-X\Jk	.
=60	=60	=60	=60	=60
*ped	*	*	*	*
8c/L]	8G\L]	8a/L	8e-\L]	.
8B/J	8G\J	8g/J)	8d\J	.
8r	8ryy	8r	4ryy	.
!	!	!	!	!LO:DY:a:t=sempre f
(32GGG/LLL	8ryy	16fn/LL 16g	.	f
32GG/	.	.	.	.
32GGG/	.	16f/JJ 16g	.	.
32GG/JJJ	.	.	.	.
=61	=61	=61	=61	=61
8GGG'/)	4ryy	(16g/LL	16f\KL	.
.	.	16g/	8.f\J	.
8r	.	16f#X/	.	.
.	.	16g/JJ)	.	.
(8.B/L	4G\	(8.dd/L	4fn\	.
*Xped	*	*	*	*
16d/Jk	.	16g/Jk	.	.
!!LO:LB:g=original
=62	=62	=62	=62	=62
8c'/)	8G\	8g\) 8ee	8ryy	.
4e/	4.G\	4cc^^/	4.g\	.
8d/	.	8b/	.	.
=63	=63	=63	=63	=63
16c/LL	[2G\	(16a/LL	[4f#X\	.
16B/	.	16g#X/	.	.
16c/	.	16a/	.	.
16d/JJ	.	16b/JJ	.	.
8.e-X/L	.	8.cc/L	8.f#\L]	.
[16c/Jk	.	16f#/Jk	[16e-X\Jk	.
=64	=64	=64	=64	=64
8c/L]	4G\]	8a/L	8e-\L]	.
8B/J	.	8gn/J)	8d\J	.
*v	*v	*	*	*
8r	8r	8rddyy	.
*^	*	*	*
(8d/	[8G\	(8b/	8g\	sf
=65	=65	=65	=65	=65
16c/LL	2G\_	16a/LL	[4f#X\	.
16B/	.	16g#X/	.	.
16c/	.	16a/	.	.
16d/JJ	.	16b/JJ	.	.
8.e-X/L	.	8.cc/L	8.f#\L]	.
[16c/Jk	.	16f#/Jk	[16e-X\Jk	.
=66	=66	=66	=66	=66
8c/L]	4G\]	8a/L	8e-\L]	.
8B/J)	.	8gn/J)	8d\J	.
8r	8ryy	8r	4rddyy	.
(8d/	[8G\	(>8g'>/ 8b	.	sf
=67	=67	=67	=67	=67
16c/LL	2G\]	16a/LL	4f#X\	.
16B/	.	16g#X/	.	.
16c/	.	16a/	.	.
16d/JJ	.	16b/JJ	.	.
8.e-X/L	.	8.cc/L	8.f#\L	.
16c/Jk)	.	16f#/Jk	16e-X\Jk)	.
=68	=68	=68	=68	=68
!	!	!LO:TX:a:t=poco ritenuto e diminuendo.	!	!
(16c/LL	2G\	(16a/LL	[4f#X\	.
16B/	.	16g#X/	.	.
16c/	.	16a/	.	.
16d/JJ	.	16b/JJ	.	.
8.e-X/L	.	8.cc/L	8.f#\L]	.
16c/Jk)	.	16f#/Jk)	16e-X\Jk	.
=69	=69	=69	=69	=69
(16c/LL	2G\	(16a/LL	2f#X\	.
16B/	.	16g#X/	.	.
16c/	.	16a/	.	.
16d/JJ	.	16b/JJ	.	.
8.e-X/L	.	8.cc/L	.	.
16d/Jk)	.	16b/Jk)	.	.
!!LO:LB:g=original
=70	=70	=70	=70	=70
[8d#X/	8c\	8a/	[8f#X\	.
4.d#/]	4.B\	4b/	4.f#\]	.
.	.	8a/	.	.
*v	*v	*	*	*
*	*v	*v	*
=71||	=71||	=71||
*k[f#c#g#d#]	*k[f#c#g#d#]	*
*^	*	*
*	*ped	*	*
8r	4.EE\	(8.g#/L	p
8BB/ 8G#	.	.	.
.	.	16b/	.
4BB/ 4G#	.	8.ee/	.
.	8EE\	.	.
*	*Xped	*	*
.	.	16e/Jk	.
*v	*v	*	*
=72	=72	=72
*	*ped	*
8BBB'/	8f#'/)	.
(8BB\L	4B^^/	.
8D#\ 8F# 8A	.	.
*	*Xped	*
8BB\J)	8a/	.
=73	=73	=73
*^	*	*
*	*ped	*	*
8r	4.EE\	(8.g#/L	.
8BB/ 8G#	.	.	.
.	.	16b/Jk	.
4BB/ 4G#	.	8ff#\L	.
.	8EE\	16ee\L	.
*	*Xped	*	*
.	.	16g#\JJ	.
*v	*v	*	*
=74	=74	=74
*	*ped	*
8BBB'/	8f#'/)	.
(8BB\L	4B^^/	.
8D#\ 8F# 8A	.	.
*	*Xped	*
8BB\J)	8a/	.
=75	=75	=75
*^	*	*
*	*ped	*	*
8r	4.EE\	(8.g#\L	<
8BB/ 8G#	.	.	.
.	.	16b\K	.
.	.	8qb/	.
4BB/ 4G#	.	8.ee\	.
.	8EE#X\	.	.
*	*Xped	*	*
.	.	16dd#\Jk	.
*v	*v	*	*
=76	=76	=76
*ped	*	*
8FF#/	8cc#'\)	.
.	8qcc#/	.
(8F#\L	4gg#^^\	.
8A#X\ 8c# 8e	.	.
*Xped	*	*
8F#\J)	8ff#\	[[
=77	=77	=77
(8B\L 8d#	(8.dd#\L	>
8F#\	.	.
.	16b\K	.
8A#X\ 8c# 8e	8.cc#\	.
8F#\J)	.	.
.	16f#\Jk	]]
!!LO:LB:g=original
=78	=78	=78
4B\ 4d#	8cc#'\)	.
.	4b^^\	.
4r	.	.
.	8a/	.
=79	=79	=79
*^	*	*
*	*	*ped	*
8r	4.EE\	(8.g#/L	.
8BB/ 8G#	.	.	.
.	.	16b/Jk	.
4BB/ 4G#	.	16ff#/LL	.
.	.	16ee/	.
.	8EE\	16e/	.
*	*	*Xped	*
.	.	16g#/JJ	.
*v	*v	*	*
=80	=80	=80
*	*ped	*
8BBB'/	8f#'/)	.
(8BB\L	4B^^/	.
8D#\ 8F# 8A	.	.
*	*Xped	*
8BB\J)	(8a/	.
=81	=81	=81
*^	*	*
*	*	*ped	*
8r	4.EE\	8.g#/L	.
8BB/ 8G#	.	.	.
.	.	16b/Jk	.
4BB/ 4G#	.	16ff#\LL	.
.	.	16ee\	.
.	8EE\	16b\	.
*	*	*Xped	*
.	.	16g#\JJ	.
*v	*v	*	*
=82	=82	=82
*	*ped	*
8BBB'/	8f#'/)	.
(8BB\L	4B^^/	.
8D#\ 8F# 8A	.	.
*	*Xped	*
8BB\J)	(8a/	.
=83	=83	=83
*^	*	*
8r	4.EE\	8.g#\L	.
8BB/ 8G#	.	.	.
.	.	16b\K	.
4BB/ 4G#	.	8.ee\)	.
.	8EE\	.	.
.	.	16ee\Jk	.
=84	=84	=84	=84
8r	2AA\	(8ee\	.
8C#/L 8F# 8A	.	4f#/	.
8C#/ 8F# 8A	.	.	.
8C#/J 8F# 8A	.	8cc#\)	.
=85	=85	=85	=85
8r	4.BB\	(8cc#\L	.
8D#/ 8F# 8A	.	8b\	.
4D#/ 4F# 4A	.	8a#X\	.
.	8BB#X\	8an\J)	.
=86	=86	=86	=86
8r	2C#\	(8f##X/L	.
8E/L 8G#	.	8g#/J)	.
8E/ 8G#	.	4r	.
8E/J 8G#	.	.	.
!!LO:LB:g=original
=87	=87	=87	=87
8r	4.EE\	(8.g#\L	<
8BB/ 8G#	.	.	.
.	.	16b\K	.
.	.	8qb/	.
4BB/ 4G#	.	8.aa\	.
.	8EE\	.	.
.	.	16gg#\Jk	[[
=88	=88	=88	=88
8r	4.AA\	8.ff#\L	>
8C#/ 8F# 8A	.	.	.
.	.	16ee\K	.
4C#/ 4E 4Gn	.	8.dd#\	.
.	8AA#X\	.	.
.	.	16cc#\Jk)	]]
=89	=89	=89	=89
8BB\L	4BB/	(>8.cc#/L	.
8E\J 8G#	.	.	.
.	.	16b/K	.
8BB\L	4BB/	8.a/	.
8D#\J 8A	.	.	.
.	.	16f#/Jk	.
*v	*v	*	*
=90	=90	=90
8E\ 8G#	8e/)	.
4E\ 4G#	4B/ 4e	.
8E\ 8G#	8B/ 8e	.
=91	=91	=91
!	!LO:TX:a:t=sotto voce.	!
(8E\L 8A	(8cn/L 8f#	.
8E\J 8A	8c/J 8f#	.
8.E\L 8.cn	8.d#/L 8.a	.
16E\Jk 16c	16d#/Jk 16a	.
=92	=92	=92
8E'\) 8B	8e'/) 8g#	.
4E\ 4G#	4B/ 4e	.
8E\ 8G#	8B/ 8e	.
=93	=93	=93
(8E\L 8A	(8cn/L 8f#	.
8E\J 8A	8c/J 8f#	.
8.E\L 8.cn	8.d#/L 8.a	.
16E\Jk 16c	16d#/Jk 16a	.
=94	=94	=94
8E'\L) 8B	8e'/L) 8g#	.
8E'\J 8G#	8B'/J 8e	.
8r	8r	.
16Cn\LL 16Gn	16A#X/LL 16e	.
16C\JJ 16G	16A#/JJ 16e	.
=95	=95	=95
*^	*^	*
8Cn\L 8Gn	4ryy	8A#X/L 8e	4ryy	<
[<8C\J 8G	.	[<8A#/J 8e	.	.
8E/L	4C\]	(8gn/L	4A#\]	.
16F#/L	.	16f#/L	.	.
16G/JJ	.	16e/JJ	.	[[
*	*	*v	*v	*
!!LO:LB:g=original
=96	=96	=96	=96
8r	2BB\	8B'/)	.
8E/L 8G#X	.	4e/	.
8E/ 8G#	.	.	.
8E/J 8G#	.	8g#X/	.
=97	=97	=97	=97
.	.	8qg#/	.
8r	4.BB\	(8cc#/L	.
8D#/ 8F# 8A	.	8b/	.
4D#/ 4F# 4A	.	8a#X/	.
.	8BB#X\	8an/J)	.
=98	=98	=98	=98
8r	4.C#\	(8f##X/L	.
8E/L 8G#	.	8g#/J)	.
8E/J 8G#	.	8r	.
16Cn\LL 16Gn	8ryy	16A#X/LL 16e	.
16C\JJ 16G	.	16A#/JJ 16e	.
=99	=99	=99	=99
*	*	*^	*
8Cn\L 8Gn	4ryy	8A#X/L 8e	4ryy	<
[<8C\J 8G	.	[<8A#/J 8e	.	.
(<8E/L	4C\]	(8gn/L	4A#\]	.
16F#/L	.	16f#/L	.	.
16G/JJ	.	[16e/JJ	.	[[
=100	=100	=100	=100	=100
8G#X'>/)	8BB\	8e'/])	8B\	.
!	!	!	!	!LO:DY:rj
8AA#X\ 8E 8Gn 8c#	8ryy	8e'\ 8gn 8a#X 8ee	8ryy	sf
8r	4ryy	8r	4ryy	.
8r	.	(>8a#/	.	p
*v	*v	*	*	*
=101	=101	=101	=101
!	!LO:TX:a:t=poco ritenuto.	!	!
4r	8cc#/L	4r	.
.	8b/J)	.	.
4BBB/ 4BB	(8.f#/L	4An\ 4d#	.
.	16g#/Jk	.	.
=102	=102	=102	=102
*^	*	*	*
8r	[2EE\	8.e/L	4G#\	<
8BB/L	.	.	.	.
.	.	16g#/K	.	[
8Cn/	.	8.f#/	4A\	>
8BB/J	.	.	.	.
.	.	16g#/Jk	.	]
=103	=103	=103	=103	=103
8r	2EE\]	8.e/L	4G#\	<
8BB/L	.	.	.	.
.	.	16g#/K	.	[
8Cn/	.	8.f#/	4A\	>
8BB/J	.	.	.	.
.	.	16g#/Jk	.	]
=104	=104	=104	=104	=104
*ped	*	*	*	*
(4.E/	16EE\	4.e/)	16G#\	.
.	16ryy	.	8.ryy	.
.	8ryy	.	.	.
.	4ryy	.	4ryy	.
!	!	!LO:TX:a:t=morendo.	!	!
16G#\LL	.	(<16g#/LL	.	.
16B\JJ	.	16b/JJ	.	.
*v	*v	*	*	*
*	*v	*v	*
=105	=105	=105
4.c#\	4.cc#\	.
16B\LL	16b/LL	.
16E\JJ	16e/JJ	.
=106	=106	=106
[2G#\)	[2g#/)	.
=107	=107	=107
*Xped	*	*
2G#\]	2g#/]	.
==	==	==
*-	*-	*-
!!!system-decoration: {(s1,s2)}
!!!RDF**kern: < = below
!!!RDF**kern: > = above
!!!ENC: Berenika Jozajtis
!!!END: 2022-12-17
!!!ENC: Marta Chmielewska
!!!END: 2023-07-16
!!!YEC: Copyright 2022 Narodowy Instytut Fryderyka Chopina (https://polishscores.org)
!!!YEM: License CC-BY-4.0 (https://creativecommons.org/licenses/by/4.0)
